X:943
T:Money Must
S:Bruce & Emmett's Drummers and Fifers Guide (1862), p. 94
M:2/4
L:1/16
Q:1/4=100
K:A
%%MIDI program 72
%%MIDI transpose 8
%%MIDI ratio 3 1
f2|e>Ac>A e>Ad>f|e>Ac>A B>cd>f|e>Ac>A d>ee>a|f>dB>d c.A~A2::
fg|a>ec>a e>ac>a|a>ed>a c>aB>g|a>ef>a e>ac>a|f>dB>d c>A~A2:|

